svgs/regular/tickets-airline.svg

<svg xmlns="http://www.w3.org/2000/svg" viewBox="0 0 640 512"><!--! Font Awesome Pro 6.4.2 by @fontawesome - https://fontawesome.com License - https://fontawesome.com/license (Commercial License) Copyright 2023 Fonticons, Inc. --><path d="M144 96V320c0 8.8 7.2 16 16 16H576c8.8 0 16-7.2 16-16V281.8c-24-15.7-40-42.8-40-73.8s16-58.1 40-73.8V96c0-8.8-7.2-16-16-16H160c-8.8 0-16 7.2-16 16zm16-64H576c35.3 0 64 28.7 64 64v56c0 8.8-7.4 15.7-15.6 19.1C610.1 177.2 600 191.4 600 208s10.1 30.8 24.4 36.9c8.1 3.4 15.6 10.3 15.6 19.1v56c0 35.3-28.7 64-64 64H160c-35.3 0-64-28.7-64-64V96c0-35.3 28.7-64 64-64zm320 80a16 16 0 1 1 32 0 16 16 0 1 1 -32 0zm0 64a16 16 0 1 1 32 0 16 16 0 1 1 -32 0zm16 48a16 16 0 1 1 0 32 16 16 0 1 1 0-32zm-16 80a16 16 0 1 1 32 0 16 16 0 1 1 -32 0zM24 96c13.3 0 24 10.7 24 24V360c0 39.8 32.2 72 72 72H520c13.3 0 24 10.7 24 24s-10.7 24-24 24H120C53.7 480 0 426.3 0 360V120c0-13.3 10.7-24 24-24zm264.4 80l-23.2-69.5c-1.7-5.2 2.1-10.5 7.6-10.5H304c8.5 0 16.4 4.5 20.7 11.9L364.4 176h40.3c16.1 0 31.5 6.4 42.8 17.7c7.9 7.9 7.9 20.7 0 28.5c-11.4 11.4-26.8 17.7-42.8 17.7H364.4l-39.7 68.1c-4.3 7.4-12.2 11.9-20.7 11.9H272.9c-5.5 0-9.3-5.3-7.6-10.5L288.4 240H245.8l-19.2 25.6c-3 4-7.8 6.4-12.8 6.4H200c-5.2 0-9-4.9-7.8-9.9l12.5-50.2c.6-2.5 .6-5.2 0-7.8l-12.5-50.2c-1.3-5 2.6-9.9 7.8-9.9h13.8c5 0 9.8 2.4 12.8 6.4L245.8 176h42.7z"/></svg>

<svg xmlns="http://www.w3.org/2000/svg" viewBox="0 0 640 512"><!--! Font Awesome Pro 6.1.1 by @fontawesome - https://fontawesome.com License - https://fontawesome.com/license (Commercial License) Copyright 2022 Fonticons, Inc. --><path d="M512 112C512 120.8 504.8 128 496 128C487.2 128 480 120.8 480 112C480 103.2 487.2 96 496 96C504.8 96 512 103.2 512 112zM512 176C512 184.8 504.8 192 496 192C487.2 192 480 184.8 480 176C480 167.2 487.2 160 496 160C504.8 160 512 167.2 512 176zM480 240C480 231.2 487.2 224 496 224C504.8 224 512 231.2 512 240C512 248.8 504.8 256 496 256C487.2 256 480 248.8 480 240zM512 304C512 312.8 504.8 320 496 320C487.2 320 480 312.8 480 304C480 295.2 487.2 288 496 288C504.8 288 512 295.2 512 304zM288.4 176L265.3 106.5C263.5 101.3 267.4 96 272.9 96H303.1C312.5 96 320.4 100.5 324.7 107.9L364.4 176H404.7C420.7 176 436.1 182.4 447.5 193.7C455.4 201.6 455.4 214.4 447.5 222.3C436.1 233.6 420.7 240 404.7 240H364.4L324.7 308.1C320.4 315.5 312.5 320 303.1 320H272.9C267.4 320 263.5 314.7 265.3 309.5L288.4 240H245.8L226.6 265.6C223.5 269.6 218.8 272 213.8 272H200C194.8 272 190.1 267.1 192.2 262.1L204.8 211.9C205.4 209.3 205.4 206.7 204.8 204.1L192.2 153.9C190.1 148.9 194.8 144 200 144H213.8C218.8 144 223.5 146.4 226.6 150.4L245.8 176L288.4 176zM640 96V168C617.9 168 600 185.9 600 208C600 230.1 617.9 248 640 248V320C640 355.3 611.3 384 576 384H160C124.7 384 96 355.3 96 320V96C96 60.65 124.7 32 160 32H576C611.3 32 640 60.65 640 96zM144 320C144 328.8 151.2 336 160 336H576C584.8 336 592 328.8 592 320V281.8C567.9 266.1 552 238.9 552 208C552 177.1 567.9 149.9 592 134.2V96C592 87.16 584.8 80 576 80H160C151.2 80 144 87.16 144 96V320zM24 96C37.25 96 48 106.7 48 120V360C48 399.8 80.24 432 120 432H520C533.3 432 544 442.7 544 456C544 469.3 533.3 480 520 480H120C53.73 480 0 426.3 0 360V120C0 106.7 10.75 96 24 96z"/></svg>
